X:1
T: Munster Bacon
C:
R:Jig
Q:180
K:D
M:6/8
L:1/16
G2|A2B2A2 A2F2D2|d2f2e2 d4c2|B2G2B2 d2A2F2|G2E2E2 E4G2|A2F2A2 d2c2d2|B2G2B2 efg2e2|a2g2f2 e2d2e2|f2d2d2 d4G2|
A2B2A2 A2F2D2|d2f2e2 d4c2|B2G2B2 d2A2F2|G2E2E2 E4G2|A2F2A2 d2c2d2|B2G2B2 efg2e2|a2g2f2 e2d2e2|f2d2d2 d4f2|
a2f2d2 d2f2a2|b2g2e2 e2f2g2|f2a2f2 g2e2d2|e2c2A2 A4G2|F2d2d2 c2e2e2|d2f2f2 e2f2g2|fga2f2 e2d2e2|f2d2d2 d4f2|
a2f2d2 d2f2a2|b2g2e2 e2f2g2|f2a2f2 g2e2d2|e2c2A2 A4G2|F2d2d2 c2e2e2|d2f2f2 e2f2g2|fga2f2 e2d2e2|f2d2d2 d4||
